symbols/web/nest_remote/materialsymbolsoutlined/nest_remote_wght700_20px.svg

<svg xmlns="http://www.w3.org/2000/svg" height="20" width="20"><path d="M10 5.396q-.479 0-.854-.375t-.375-.854q0-.5.375-.865.375-.364.854-.364.5 0 .865.364.364.365.364.865 0 .479-.364.854-.365.375-.865.375Zm0 15.312q-2.208 0-3.76-1.562-1.552-1.563-1.552-3.771V4.625q0-2.208 1.552-3.771Q7.792-.708 10-.708q2.208 0 3.76 1.562 1.552 1.563 1.552 3.771v10.75q0 2.208-1.552 3.771-1.552 1.562-3.76 1.562Zm0-14.375q.896 0 1.531-.625.636-.625.636-1.541 0-.896-.625-1.532Q10.917 2 10 2q-.896 0-1.531.625-.636.625-.636 1.542 0 .895.625 1.531.625.635 1.542.635ZM10 18q1.083 0 1.844-.771.76-.771.76-1.854V7.333q-.542.438-1.198.698-.656.261-1.406.261-.75 0-1.406-.261-.656-.26-1.198-.698v8.042q0 1.083.76 1.854Q8.917 18 10 18Zm-1.354-4.375q-.375 0-.656-.281-.282-.282-.282-.656 0-.376.282-.657.281-.281.656-.281t.656.281q.281.281.281.657 0 .374-.281.656-.281.281-.656.281Zm0-2.687q-.375 0-.656-.282-.282-.281-.282-.656t.282-.656q.281-.282.656-.282t.656.282q.281.281.281.656t-.281.656q-.281.282-.656.282Zm2.708 0q-.375 0-.656-.282-.281-.281-.281-.656t.281-.656q.281-.282.656-.282t.656.282q.282.281.282.656t-.282.656q-.281.282-.656.282Zm0 2.687q-.375 0-.656-.281-.281-.282-.281-.656 0-.376.281-.657t.656-.281q.375 0 .656.281.282.281.282.657 0 .374-.282.656-.281.281-.656.281Zm-2.708 2.687q-.375 0-.656-.281-.282-.281-.282-.656t.282-.656q.281-.281.656-.281t.656.281q.281.281.281.656t-.281.656q-.281.281-.656.281Zm2.708 0q-.375 0-.656-.281t-.281-.656q0-.375.281-.656t.656-.281q.375 0 .656.281.282.281.282.656t-.282.656q-.281.281-.656.281Z"/></svg>

<svg xmlns="http://www.w3.org/2000/svg" height="20" width="20"><path d="M10 5.396Q9.521 5.396 9.146 5.021Q8.771 4.646 8.771 4.167Q8.771 3.667 9.146 3.302Q9.521 2.938 10 2.938Q10.5 2.938 10.865 3.302Q11.229 3.667 11.229 4.167Q11.229 4.646 10.865 5.021Q10.5 5.396 10 5.396ZM10 20.708Q7.792 20.708 6.24 19.146Q4.688 17.583 4.688 15.375V4.625Q4.688 2.417 6.24 0.854Q7.792 -0.708 10 -0.708Q12.208 -0.708 13.76 0.854Q15.312 2.417 15.312 4.625V15.375Q15.312 17.583 13.76 19.146Q12.208 20.708 10 20.708ZM10 6.333Q10.896 6.333 11.531 5.708Q12.167 5.083 12.167 4.167Q12.167 3.271 11.542 2.635Q10.917 2 10 2Q9.104 2 8.469 2.625Q7.833 3.25 7.833 4.167Q7.833 5.062 8.458 5.698Q9.083 6.333 10 6.333ZM10 18Q11.083 18 11.844 17.229Q12.604 16.458 12.604 15.375V7.333Q12.062 7.771 11.406 8.031Q10.75 8.292 10 8.292Q9.25 8.292 8.594 8.031Q7.938 7.771 7.396 7.333V15.375Q7.396 16.458 8.156 17.229Q8.917 18 10 18ZM8.646 13.625Q8.271 13.625 7.99 13.344Q7.708 13.062 7.708 12.688Q7.708 12.312 7.99 12.031Q8.271 11.75 8.646 11.75Q9.021 11.75 9.302 12.031Q9.583 12.312 9.583 12.688Q9.583 13.062 9.302 13.344Q9.021 13.625 8.646 13.625ZM8.646 10.938Q8.271 10.938 7.99 10.656Q7.708 10.375 7.708 10Q7.708 9.625 7.99 9.344Q8.271 9.062 8.646 9.062Q9.021 9.062 9.302 9.344Q9.583 9.625 9.583 10Q9.583 10.375 9.302 10.656Q9.021 10.938 8.646 10.938ZM11.354 10.938Q10.979 10.938 10.698 10.656Q10.417 10.375 10.417 10Q10.417 9.625 10.698 9.344Q10.979 9.062 11.354 9.062Q11.729 9.062 12.01 9.344Q12.292 9.625 12.292 10Q12.292 10.375 12.01 10.656Q11.729 10.938 11.354 10.938ZM11.354 13.625Q10.979 13.625 10.698 13.344Q10.417 13.062 10.417 12.688Q10.417 12.312 10.698 12.031Q10.979 11.75 11.354 11.75Q11.729 11.75 12.01 12.031Q12.292 12.312 12.292 12.688Q12.292 13.062 12.01 13.344Q11.729 13.625 11.354 13.625ZM8.646 16.312Q8.271 16.312 7.99 16.031Q7.708 15.75 7.708 15.375Q7.708 15 7.99 14.719Q8.271 14.438 8.646 14.438Q9.021 14.438 9.302 14.719Q9.583 15 9.583 15.375Q9.583 15.75 9.302 16.031Q9.021 16.312 8.646 16.312ZM11.354 16.312Q10.979 16.312 10.698 16.031Q10.417 15.75 10.417 15.375Q10.417 15 10.698 14.719Q10.979 14.438 11.354 14.438Q11.729 14.438 12.01 14.719Q12.292 15 12.292 15.375Q12.292 15.75 12.01 16.031Q11.729 16.312 11.354 16.312Z"/></svg>
